X: 3
T: Mother's Delight
R: reel
M: 4/4
L: 1/8
K: Ddor
DE|:~F2 FD ~G2 GE|~F2 FD GECE |Ddd^c defe|~d2 dc ABcA|d^cd=c ~A2 AB|cBcG ECCE|Dddc dcAB|~c2 GE ~D2DE:|:FAdA FD ~D2|EGcG EC ~C2|FAdA FD ~D2 ||EDCE ~D2 DE |FAdA FD ~D2|EGcG ECCE|~F2 EF DCA,C|1 DFEC ~D2 DE:|2 DFEC ~D3||


Tune 257	Setting 12988

